icons/bluetooth/bluetooth-off.svg

<svg width="14" height="14" viewBox="0 0 14 14" fill="none"
    xmlns="http://www.w3.org/2000/svg">
    <path d="M7.2498 9.37098V10.0653L7.66581 9.787L8.38749 10.5087L7.02714 11.4159C6.87373 11.5181 6.67602 11.5273 6.51347 11.4403C6.3512 11.3532 6.24984 11.1841 6.2498 10.9999V8.37098L7.2498 9.37098ZM5.94413 8.06532L4.50663 8.9286C4.26991 9.07037 3.96311 8.99334 3.82108 8.75672C3.67926 8.51999 3.75632 8.21321 3.99296 8.07118L5.21562 7.3368L5.94413 8.06532ZM6.51347 2.55946C6.67605 2.47245 6.87371 2.48159 7.02714 2.58387L10.0271 4.58387C10.1662 4.67661 10.2498 4.83273 10.2498 4.99989C10.2498 5.16702 10.1662 5.32319 10.0271 5.4159L8.533 6.412L7.81132 5.69032L8.84843 4.99989L7.2498 3.93348V5.12879L6.2498 4.12879V2.99989C6.2498 2.8157 6.35121 2.64655 6.51347 2.55946Z" fill="red"/>
    <path d="M2.99988 2.99915L10.9999 10.9991" stroke="green" stroke-linecap="round" stroke-linejoin="round"/>
</svg>

<svg xmlns="http://www.w3.org/2000/svg" width="14" height="14" fill="none" viewBox="0 0 14 14"><path fill="red" d="M7.25 9.371v.694l.416-.278.721.722-1.36.907A.5.5 0 0 1 6.25 11V8.37zM5.944 8.065l-1.437.864a.5.5 0 0 1-.514-.858l1.223-.734zm.57-5.506a.5.5 0 0 1 .513.025l3 2a.5.5 0 0 1 0 .832l-1.494.996-.722-.722L8.848 5 7.25 3.933V5.13l-1-1V3a.5.5 0 0 1 .263-.44"/><path stroke="green" stroke-linecap="round" stroke-linejoin="round" d="m3 3 8 8"/></svg>
